src/img/instagram.svg

<svg height="73" viewBox="0 0 73 73" width="73" xmlns="http://www.w3.org/2000/svg"><g fill="#699db7" fill-rule="evenodd" transform="translate(.885452 .89781)"><path d="m35.7223752 71.3974397c-19.6968177 0-35.7223752-16.0142437-35.7223752-35.6982676 0-19.6849284 16.0255575-35.6991721 35.7223752-35.6991721 19.6977228 0 35.7223752 16.0142437 35.7223752 35.6991721 0 19.6840239-16.0246524 35.6982676-35.7223752 35.6982676zm0-68.68377436c-18.1997111 0-33.00694608 14.79671256-33.00694608 32.98550676 0 18.1878897 14.80723498 32.9846023 33.00694608 32.9846023 18.2006162 0 33.0069461-14.7967126 33.0069461-32.9846023 0-18.1887942-14.8063299-32.98550676-33.0069461-32.98550676z"/><path d="m48.7423641 18.189781h-25.2960325c-2.1786793 0-3.9446134 1.7602643-3.9446134 3.9330057v25.2976928c0 2.1718369 1.7659341 3.9330057 3.9446134 3.9330057h25.2960325c2.1786793 0 3.9446134-1.7611688 3.9446134-3.9330057v-25.2976928c0-2.1727414-1.7659341-3.9330057-3.9446134-3.9330057zm-5.3883165 5.1812917c0-.5716788.4643384-1.0366201 1.0363888-1.0366201h3.1109766c.5729555 0 1.0372939.4649413 1.0372939 1.0366201v3.1089559c0 .5725834-.4643384 1.0366202-1.0372939 1.0366202h-3.1109766c-.5720504 0-1.0363888-.4640368-1.0363888-1.0366202zm-7.2212312 5.0763633c3.524627 0 6.3821636 2.8493486 6.3821636 6.3617361 0 3.5151012-2.8575366 6.3635453-6.3821636 6.3635453-3.5237218 0-6.3812584-2.8484441-6.3812584-6.3635453 0-3.5123875 2.8575366-6.3617361 6.3812584-6.3617361zm13.4431844 18.7604731c0 .5716788-.4643383 1.0366201-1.0372939 1.0366201h-24.8887181c-.5729556 0-1.037294-.4649413-1.037294-1.0366201v-15.5456842h4.1482706c-.5403704.7770128-.7232093 2.2270147-.7232093 3.1469472 0 5.5503502 4.5293358 10.0658893 10.0950603 10.0658893 5.5666297 0 10.0959655-4.5155391 10.0959655-10.0658893 0-.9199325-.1312458-2.348225-.8010516-3.1469472h4.1482705z"/></g></svg>

<?xml version="1.0" encoding="UTF-8"?>
<svg width="73px" height="73px" viewBox="0 0 73 73" version="1.1" xmlns="http://www.w3.org/2000/svg" xmlns:xlink="http://www.w3.org/1999/xlink">
    <!-- Generator: Sketch 49.2 (51160) - http://www.bohemiancoding.com/sketch -->
    <title>instagram</title>
    <desc>Created with Sketch.</desc>
    <defs></defs>
    <g id="Page-1" stroke="none" stroke-width="1" fill="none" fill-rule="evenodd">
        <g id="1-HOMEPAGE" transform="translate(-1736.000000, -5716.000000)" fill="#699DB7">
            <g id="Page-1" transform="translate(0.000000, 5049.000000)">
                <g id="Group-14">
                    <g id="footer" transform="translate(725.000000, 665.000000)">
                        <g id="instagram" transform="translate(1011.885452, 2.897810)">
                            <path d="M35.7223752,71.3974397 C16.0255575,71.3974397 0,55.383196 0,35.6991721 C0,16.0142437 16.0255575,0 35.7223752,0 C55.420098,0 71.4447504,16.0142437 71.4447504,35.6991721 C71.4447504,55.383196 55.420098,71.3974397 35.7223752,71.3974397 L35.7223752,71.3974397 Z M35.7223752,2.71366534 C17.5226641,2.71366534 2.71542912,17.5103779 2.71542912,35.6991721 C2.71542912,53.8870618 17.5226641,68.6837744 35.7223752,68.6837744 C53.9229914,68.6837744 68.7293213,53.8870618 68.7293213,35.6991721 C68.7293213,17.5103779 53.9229914,2.71366534 35.7223752,2.71366534 L35.7223752,2.71366534 Z" id="Instagram-Circle"></path>
                            <path d="M48.7423641,18.189781 L23.4463316,18.189781 C21.2676523,18.189781 19.5017182,19.9500453 19.5017182,22.1227867 L19.5017182,47.4204795 C19.5017182,49.5923164 21.2676523,51.3534852 23.4463316,51.3534852 L48.7423641,51.3534852 C50.9210434,51.3534852 52.6869775,49.5923164 52.6869775,47.4204795 L52.6869775,22.1227867 C52.6869775,19.9500453 50.9210434,18.189781 48.7423641,18.189781 L48.7423641,18.189781 Z M43.3540476,23.3710727 C43.3540476,22.7993939 43.818386,22.3344526 44.3904364,22.3344526 L47.501413,22.3344526 C48.0743685,22.3344526 48.5387069,22.7993939 48.5387069,23.3710727 L48.5387069,26.4800286 C48.5387069,27.052612 48.0743685,27.5166488 47.501413,27.5166488 L44.3904364,27.5166488 C43.818386,27.5166488 43.3540476,27.052612 43.3540476,26.4800286 L43.3540476,23.3710727 L43.3540476,23.3710727 Z M36.1328164,28.447436 C39.6574434,28.447436 42.51498,31.2967846 42.51498,34.8091721 C42.51498,38.3242733 39.6574434,41.1727174 36.1328164,41.1727174 C32.6090946,41.1727174 29.751558,38.3242733 29.751558,34.8091721 C29.751558,31.2967846 32.6090946,28.447436 36.1328164,28.447436 L36.1328164,28.447436 Z M49.5760008,47.2079091 C49.5760008,47.7795879 49.1116625,48.2445292 48.5387069,48.2445292 L23.6499888,48.2445292 C23.0770332,48.2445292 22.6126948,47.7795879 22.6126948,47.2079091 L22.6126948,31.6622249 L26.7609654,31.6622249 C26.220595,32.4392377 26.0377561,33.8892396 26.0377561,34.8091721 C26.0377561,40.3595223 30.5670919,44.8750614 36.1328164,44.8750614 C41.6994461,44.8750614 46.2287819,40.3595223 46.2287819,34.8091721 C46.2287819,33.8892396 46.0975361,32.4609471 45.4277303,31.6622249 L49.5760008,31.6622249 L49.5760008,47.2079091 L49.5760008,47.2079091 Z" id="Instagram"></path>
                        </g>
                    </g>
                </g>
            </g>
        </g>
    </g>
</svg>
